src/assets/pattern_silver.svg

<svg xmlns="http://www.w3.org/2000/svg" width="400" height="30"><path d="M2-54l66 1h164z" fill="#d4e6f3" stroke="#d4e6f3" stroke-width="1.51"/><path d="M68-53l53 8 111-8z" fill="#c6dfee" stroke="#c6dfee" stroke-width="1.51"/><path d="M152 54l-52 9 188 12z" fill="#5085bd" stroke="#5085bd" stroke-width="1.51"/><path d="M100 63L50 76l238-1z" fill="#5c85b8" stroke="#5c85b8" stroke-width="1.51"/><path d="M232-53l81 14 47-9z" fill="#98b8dc" stroke="#98b8dc" stroke-width="1.51"/><path d="M360-48l43 15 25 4z" fill="#8499c9" stroke="#8499c9" stroke-width="1.51"/><path d="M451 15l-44 4 45 35z" fill="#2f68a3" stroke="#2f68a3" stroke-width="1.51"/><path d="M421 3l30 12 8-19z" fill="#5278aa" stroke="#5278aa" stroke-width="1.51"/><path d="M428-29l-7 32 38-7z" fill="#6683b2" stroke="#6683b2" stroke-width="1.51"/><path d="M451 15l1 39 7-58z" fill="#37699f" stroke="#37699f" stroke-width="1.51"/><path d="M421 3l-14 16 44-4z" fill="#4778ae" stroke="#4778ae" stroke-width="1.51"/><path d="M407 19l-11 56 56-21z" fill="#185ca1" stroke="#185ca1" stroke-width="1.51"/><path d="M375 35l21 40 11-56z" fill="#2168ad" stroke="#2168ad" stroke-width="1.51"/><path d="M403-33l18 36 7-32z" fill="#748cbd" stroke="#748cbd" stroke-width="1.51"/><path d="M369-10l38 29 14-16z" fill="#5885bb" stroke="#5885bb" stroke-width="1.51"/><path d="M403-33l-34 23 52 13z" fill="#7090c2" stroke="#7090c2" stroke-width="1.51"/><path d="M369-10l6 45 32-16z" fill="#4782bb" stroke="#4782bb" stroke-width="1.51"/><path d="M375 35l-5 40h26z" fill="#125aa3" stroke="#125aa3" stroke-width="1.51"/><path d="M360-48l9 38 34-23z" fill="#819ccb" stroke="#819ccb" stroke-width="1.51"/><path d="M360-48l-7 17 16 21z" fill="#83a0cf" stroke="#83a0cf" stroke-width="1.51"/><path d="M356 57l14 18 5-40z" fill="#1962aa" stroke="#1962aa" stroke-width="1.51"/><path d="M185 50l-33 4 136 21z" fill="#4583bd" stroke="#4583bd" stroke-width="1.51"/><path d="M333-16l-18 29 22 28z" fill="#5091c7" stroke="#5091c7" stroke-width="1.51"/><path d="M333-16l4 57 32-51z" fill="#5c93c6" stroke="#5c93c6" stroke-width="1.51"/><path d="M369-10l-32 51 38-6z" fill="#4082bd" stroke="#4082bd" stroke-width="1.51"/><path d="M337 41l19 16 19-22z" fill="#2570b3" stroke="#2570b3" stroke-width="1.51"/><path d="M356 57l-68 18h82z" fill="#165ea5" stroke="#165ea5" stroke-width="1.51"/><path d="M353-31l-20 15 36 6z" fill="#7c9ece" stroke="#7c9ece" stroke-width="1.51"/><path d="M337 41l-49 34 68-18z" fill="#1e6bb0" stroke="#1e6bb0" stroke-width="1.51"/><path d="M313-39l40 8 7-17z" fill="#8daad5" stroke="#8daad5" stroke-width="1.51"/><path d="M313-39l20 23 20-15z" fill="#86a7d4" stroke="#86a7d4" stroke-width="1.51"/><path d="M243 53l-58-3 103 25z" fill="#3a7eba" stroke="#3a7eba" stroke-width="1.51"/><path d="M315 13l-21 8 43 20z" fill="#428bc3" stroke="#428bc3" stroke-width="1.51"/><path d="M294 21l-10 25 53-5z" fill="#3684c0" stroke="#3684c0" stroke-width="1.51"/><path d="M284 46l4 29 49-34z" fill="#2874b5" stroke="#2874b5" stroke-width="1.51"/><path d="M232-53l44 25 37-11z" fill="#98bcde" stroke="#98bcde" stroke-width="1.51"/><path d="M313-39l2 52 18-29z" fill="#7aa4d1" stroke="#7aa4d1" stroke-width="1.51"/><path d="M284 46l-5 15 9 14z" fill="#2a73b3" stroke="#2a73b3" stroke-width="1.51"/><path d="M276-28l-9 30 27 19z" fill="#71a9d2" stroke="#71a9d2" stroke-width="1.51"/><path d="M313-39l-37 11 39 41z" fill="#82abd5" stroke="#82abd5" stroke-width="1.51"/><path d="M276-28l18 49 21-8z" fill="#69a2ce" stroke="#69a2ce" stroke-width="1.51"/><path d="M267 2l17 44 10-25z" fill="#4b95c8" stroke="#4b95c8" stroke-width="1.51"/><path d="M267 2l-33 33 50 11z" fill="#4a97c9" stroke="#4a97c9" stroke-width="1.51"/><path d="M279 61l-36-8 45 22z" fill="#2d74b3" stroke="#2d74b3" stroke-width="1.51"/><path d="M234 35l9 18 41-7z" fill="#3d89c2" stroke="#3d89c2" stroke-width="1.51"/><path d="M243 53l36 8 5-15z" fill="#317dba" stroke="#317dba" stroke-width="1.51"/><path d="M232-9l35 11 9-30z" fill="#82b3d8" stroke="#82b3d8" stroke-width="1.51"/><path d="M232-53v44l44-19z" fill="#97bee0" stroke="#97bee0" stroke-width="1.51"/><path d="M232-9l2 44 33-33z" fill="#68a9d3" stroke="#68a9d3" stroke-width="1.51"/><path d="M121-45l41 17 70-25z" fill="#b5d4ea" stroke="#b5d4ea" stroke-width="1.51"/><path d="M232-53l-16 30 16 14z" fill="#9ac2e1" stroke="#9ac2e1" stroke-width="1.51"/><path d="M232-9l-35 9 37 35z" fill="#70aed6" stroke="#70aed6" stroke-width="1.51"/><path d="M234 35l-49 15 58 3z" fill="#478ec5" stroke="#478ec5" stroke-width="1.51"/><path d="M197 0l-8 20 45 15z" fill="#66aad4" stroke="#66aad4" stroke-width="1.51"/><path d="M189 20l-4 30 49-15z" fill="#559dcd" stroke="#559dcd" stroke-width="1.51"/><path d="M162-28l54 5 16-30z" fill="#a5cae6" stroke="#a5cae6" stroke-width="1.51"/><path d="M216-23L197 0l35-9z" fill="#8cbddd" stroke="#8cbddd" stroke-width="1.51"/><path d="M162-28l35 28 19-23z" fill="#9ac5e2" stroke="#9ac5e2" stroke-width="1.51"/><path d="M172-4l17 24 8-20z" fill="#80b8da" stroke="#80b8da" stroke-width="1.51"/><path d="M162-28l10 24 25 4z" fill="#98c5e1" stroke="#98c5e1" stroke-width="1.51"/><path d="M161 29l24 21 4-30z" fill="#61a4d0" stroke="#61a4d0" stroke-width="1.51"/><path d="M172-4l-11 33 28-9z" fill="#76b3d8" stroke="#76b3d8" stroke-width="1.51"/><path d="M161 29l-9 25 33-4z" fill="#609bcc" stroke="#609bcc" stroke-width="1.51"/><path d="M119 52l-19 11 52-9z" fill="#6b97c8" stroke="#6b97c8" stroke-width="1.51"/><path d="M129 16l32 13 11-33z" fill="#80b9db" stroke="#80b9db" stroke-width="1.51"/><path d="M129-10v26l43-20z" fill="#96c5df" stroke="#96c5df" stroke-width="1.51"/><path d="M162-28l-33 18 43 6z" fill="#a4cbe4" stroke="#a4cbe4" stroke-width="1.51"/><path d="M121-45l8 35 33-18z" fill="#b7d5ea" stroke="#b7d5ea" stroke-width="1.51"/><path d="M129 16l23 38 9-25z" fill="#6faad3" stroke="#6faad3" stroke-width="1.51"/><path d="M129 16l-10 36 33 2z" fill="#70a5d0" stroke="#70a5d0" stroke-width="1.51"/><path d="M121-45L99-24l30 14z" fill="#bcd8eb" stroke="#bcd8eb" stroke-width="1.51"/><path d="M99-24l-2 4 32 10z" fill="#b8d5ea" stroke="#b8d5ea" stroke-width="1.51"/><path d="M91 44l28 8 10-36z" fill="#78acd4" stroke="#78acd4" stroke-width="1.51"/><path d="M129-10L97-20l32 36z" fill="#a6cde4" stroke="#a6cde4" stroke-width="1.51"/><path d="M97-20l-6 64 38-28z" fill="#91c1df" stroke="#91c1df" stroke-width="1.51"/><path d="M68-53l31 29 22-21z" fill="#cde1f0" stroke="#cde1f0" stroke-width="1.51"/><path d="M56-1l35 45 6-64z" fill="#a0c9e4" stroke="#a0c9e4" stroke-width="1.51"/><path d="M91 44l9 19 19-11z" fill="#739dcd" stroke="#739dcd" stroke-width="1.51"/><path d="M56-1l6 45h29z" fill="#8db9dc" stroke="#8db9dc" stroke-width="1.51"/><path d="M68-53l29 33 2-4z" fill="#c9def0" stroke="#c9def0" stroke-width="1.51"/><path d="M91 44H62l38 19z" fill="#7aa2d1" stroke="#7aa2d1" stroke-width="1.51"/><path d="M62 44L50 76l50-13z" fill="#7a99ca" stroke="#7a99ca" stroke-width="1.51"/><path d="M68-53L56-1l41-19z" fill="#c8dcef" stroke="#c8dcef" stroke-width="1.51"/><path d="M56-1L40 15l22 29z" fill="#9ac3e2" stroke="#9ac3e2" stroke-width="1.51"/><path d="M2-54l25 23 41-22z" fill="#dfebf7" stroke="#dfebf7" stroke-width="1.51"/><path d="M27-31L56-1l12-52z" fill="#cfe1f2" stroke="#cfe1f2" stroke-width="1.51"/><path d="M20 58l30 18 12-32z" fill="#809ecd" stroke="#809ecd" stroke-width="1.51"/><path d="M40 15L20 58l42-14z" fill="#8cb3d9" stroke="#8cb3d9" stroke-width="1.51"/><path d="M27-31l13 46L56-1z" fill="#bbd7eb" stroke="#bbd7eb" stroke-width="1.51"/><path d="M27-31l-8 45 21 1z" fill="#b8d6ea" stroke="#b8d6ea" stroke-width="1.51"/><path d="M19 14l1 44 20-43z" fill="#96bedf" stroke="#96bedf" stroke-width="1.51"/><path d="M20 58l-34 17 64 1z" fill="#8096c5" stroke="#8096c5" stroke-width="1.51"/><path d="M19 14L0 46l20 12z" fill="#91b6db" stroke="#91b6db" stroke-width="1.51"/><path d="M-12-10l31 24 8-45z" fill="#c4dcee" stroke="#c4dcee" stroke-width="1.51"/><path d="M2-54l-14 44 39-21z" fill="#dae8f5" stroke="#dae8f5" stroke-width="1.51"/><path d="M0 46l-14 29 34-17z" fill="#88a2cf" stroke="#88a2cf" stroke-width="1.51"/><path d="M-12-10L0 46l19-32z" fill="#a6cbe6" stroke="#a6cbe6" stroke-width="1.51"/><path d="M-12-10l-18 51 30 5z" fill="#a1c5e3" stroke="#a1c5e3" stroke-width="1.51"/><path d="M-30 41l16 34L0 46z" fill="#8eaad4" stroke="#8eaad4" stroke-width="1.51"/><path d="M-44-24l32 14L2-54z" fill="#ddeaf6" stroke="#ddeaf6" stroke-width="1.51"/><path d="M-30 41l-28 29 44 5z" fill="#8ea4d0" stroke="#8ea4d0" stroke-width="1.51"/><path d="M-61 1l31 40 18-51z" fill="#b5d4eb" stroke="#b5d4eb" stroke-width="1.51"/><path d="M-44-24L-61 1l49-11z" fill="#d0e3f2" stroke="#d0e3f2" stroke-width="1.51"/><path d="M-61 1l3 69 28-29z" fill="#9fbfdf" stroke="#9fbfdf" stroke-width="1.51"/></svg>

<svg xmlns="http://www.w3.org/2000/svg" width="400" height="30"><path d="M2,-54L68,-53L232,-53Z" fill="#d4e6f3" stroke="#d4e6f3" stroke-width="1.51"/><path d="M68,-53L121,-45L232,-53Z" fill="#c6dfee" stroke="#c6dfee" stroke-width="1.51"/><path d="M152,54L100,63L288,75Z" fill="#5085bd" stroke="#5085bd" stroke-width="1.51"/><path d="M100,63L50,76L288,75Z" fill="#5c85b8" stroke="#5c85b8" stroke-width="1.51"/><path d="M232,-53L313,-39L360,-48Z" fill="#98b8dc" stroke="#98b8dc" stroke-width="1.51"/><path d="M360,-48L403,-33L428,-29Z" fill="#8499c9" stroke="#8499c9" stroke-width="1.51"/><path d="M451,15L407,19L452,54Z" fill="#2f68a3" stroke="#2f68a3" stroke-width="1.51"/><path d="M421,3L451,15L459,-4Z" fill="#5278aa" stroke="#5278aa" stroke-width="1.51"/><path d="M428,-29L421,3L459,-4Z" fill="#6683b2" stroke="#6683b2" stroke-width="1.51"/><path d="M451,15L452,54L459,-4Z" fill="#37699f" stroke="#37699f" stroke-width="1.51"/><path d="M421,3L407,19L451,15Z" fill="#4778ae" stroke="#4778ae" stroke-width="1.51"/><path d="M407,19L396,75L452,54Z" fill="#185ca1" stroke="#185ca1" stroke-width="1.51"/><path d="M375,35L396,75L407,19Z" fill="#2168ad" stroke="#2168ad" stroke-width="1.51"/><path d="M403,-33L421,3L428,-29Z" fill="#748cbd" stroke="#748cbd" stroke-width="1.51"/><path d="M369,-10L407,19L421,3Z" fill="#5885bb" stroke="#5885bb" stroke-width="1.51"/><path d="M403,-33L369,-10L421,3Z" fill="#7090c2" stroke="#7090c2" stroke-width="1.51"/><path d="M369,-10L375,35L407,19Z" fill="#4782bb" stroke="#4782bb" stroke-width="1.51"/><path d="M375,35L370,75L396,75Z" fill="#125aa3" stroke="#125aa3" stroke-width="1.51"/><path d="M360,-48L369,-10L403,-33Z" fill="#819ccb" stroke="#819ccb" stroke-width="1.51"/><path d="M360,-48L353,-31L369,-10Z" fill="#83a0cf" stroke="#83a0cf" stroke-width="1.51"/><path d="M356,57L370,75L375,35Z" fill="#1962aa" stroke="#1962aa" stroke-width="1.51"/><path d="M185,50L152,54L288,75Z" fill="#4583bd" stroke="#4583bd" stroke-width="1.51"/><path d="M333,-16L315,13L337,41Z" fill="#5091c7" stroke="#5091c7" stroke-width="1.51"/><path d="M333,-16L337,41L369,-10Z" fill="#5c93c6" stroke="#5c93c6" stroke-width="1.51"/><path d="M369,-10L337,41L375,35Z" fill="#4082bd" stroke="#4082bd" stroke-width="1.51"/><path d="M337,41L356,57L375,35Z" fill="#2570b3" stroke="#2570b3" stroke-width="1.51"/><path d="M356,57L288,75L370,75Z" fill="#165ea5" stroke="#165ea5" stroke-width="1.51"/><path d="M353,-31L333,-16L369,-10Z" fill="#7c9ece" stroke="#7c9ece" stroke-width="1.51"/><path d="M337,41L288,75L356,57Z" fill="#1e6bb0" stroke="#1e6bb0" stroke-width="1.51"/><path d="M313,-39L353,-31L360,-48Z" fill="#8daad5" stroke="#8daad5" stroke-width="1.51"/><path d="M313,-39L333,-16L353,-31Z" fill="#86a7d4" stroke="#86a7d4" stroke-width="1.51"/><path d="M243,53L185,50L288,75Z" fill="#3a7eba" stroke="#3a7eba" stroke-width="1.51"/><path d="M315,13L294,21L337,41Z" fill="#428bc3" stroke="#428bc3" stroke-width="1.51"/><path d="M294,21L284,46L337,41Z" fill="#3684c0" stroke="#3684c0" stroke-width="1.51"/><path d="M284,46L288,75L337,41Z" fill="#2874b5" stroke="#2874b5" stroke-width="1.51"/><path d="M232,-53L276,-28L313,-39Z" fill="#98bcde" stroke="#98bcde" stroke-width="1.51"/><path d="M313,-39L315,13L333,-16Z" fill="#7aa4d1" stroke="#7aa4d1" stroke-width="1.51"/><path d="M284,46L279,61L288,75Z" fill="#2a73b3" stroke="#2a73b3" stroke-width="1.51"/><path d="M276,-28L267,2L294,21Z" fill="#71a9d2" stroke="#71a9d2" stroke-width="1.51"/><path d="M313,-39L276,-28L315,13Z" fill="#82abd5" stroke="#82abd5" stroke-width="1.51"/><path d="M276,-28L294,21L315,13Z" fill="#69a2ce" stroke="#69a2ce" stroke-width="1.51"/><path d="M267,2L284,46L294,21Z" fill="#4b95c8" stroke="#4b95c8" stroke-width="1.51"/><path d="M267,2L234,35L284,46Z" fill="#4a97c9" stroke="#4a97c9" stroke-width="1.51"/><path d="M279,61L243,53L288,75Z" fill="#2d74b3" stroke="#2d74b3" stroke-width="1.51"/><path d="M234,35L243,53L284,46Z" fill="#3d89c2" stroke="#3d89c2" stroke-width="1.51"/><path d="M243,53L279,61L284,46Z" fill="#317dba" stroke="#317dba" stroke-width="1.51"/><path d="M232,-9L267,2L276,-28Z" fill="#82b3d8" stroke="#82b3d8" stroke-width="1.51"/><path d="M232,-53L232,-9L276,-28Z" fill="#97bee0" stroke="#97bee0" stroke-width="1.51"/><path d="M232,-9L234,35L267,2Z" fill="#68a9d3" stroke="#68a9d3" stroke-width="1.51"/><path d="M121,-45L162,-28L232,-53Z" fill="#b5d4ea" stroke="#b5d4ea" stroke-width="1.51"/><path d="M232,-53L216,-23L232,-9Z" fill="#9ac2e1" stroke="#9ac2e1" stroke-width="1.51"/><path d="M232,-9L197,0L234,35Z" fill="#70aed6" stroke="#70aed6" stroke-width="1.51"/><path d="M234,35L185,50L243,53Z" fill="#478ec5" stroke="#478ec5" stroke-width="1.51"/><path d="M197,0L189,20L234,35Z" fill="#66aad4" stroke="#66aad4" stroke-width="1.51"/><path d="M189,20L185,50L234,35Z" fill="#559dcd" stroke="#559dcd" stroke-width="1.51"/><path d="M162,-28L216,-23L232,-53Z" fill="#a5cae6" stroke="#a5cae6" stroke-width="1.51"/><path d="M216,-23L197,0L232,-9Z" fill="#8cbddd" stroke="#8cbddd" stroke-width="1.51"/><path d="M162,-28L197,0L216,-23Z" fill="#9ac5e2" stroke="#9ac5e2" stroke-width="1.51"/><path d="M172,-4L189,20L197,0Z" fill="#80b8da" stroke="#80b8da" stroke-width="1.51"/><path d="M162,-28L172,-4L197,0Z" fill="#98c5e1" stroke="#98c5e1" stroke-width="1.51"/><path d="M161,29L185,50L189,20Z" fill="#61a4d0" stroke="#61a4d0" stroke-width="1.51"/><path d="M172,-4L161,29L189,20Z" fill="#76b3d8" stroke="#76b3d8" stroke-width="1.51"/><path d="M161,29L152,54L185,50Z" fill="#609bcc" stroke="#609bcc" stroke-width="1.51"/><path d="M119,52L100,63L152,54Z" fill="#6b97c8" stroke="#6b97c8" stroke-width="1.51"/><path d="M129,16L161,29L172,-4Z" fill="#80b9db" stroke="#80b9db" stroke-width="1.51"/><path d="M129,-10L129,16L172,-4Z" fill="#96c5df" stroke="#96c5df" stroke-width="1.51"/><path d="M162,-28L129,-10L172,-4Z" fill="#a4cbe4" stroke="#a4cbe4" stroke-width="1.51"/><path d="M121,-45L129,-10L162,-28Z" fill="#b7d5ea" stroke="#b7d5ea" stroke-width="1.51"/><path d="M129,16L152,54L161,29Z" fill="#6faad3" stroke="#6faad3" stroke-width="1.51"/><path d="M129,16L119,52L152,54Z" fill="#70a5d0" stroke="#70a5d0" stroke-width="1.51"/><path d="M121,-45L99,-24L129,-10Z" fill="#bcd8eb" stroke="#bcd8eb" stroke-width="1.51"/><path d="M99,-24L97,-20L129,-10Z" fill="#b8d5ea" stroke="#b8d5ea" stroke-width="1.51"/><path d="M91,44L119,52L129,16Z" fill="#78acd4" stroke="#78acd4" stroke-width="1.51"/><path d="M129,-10L97,-20L129,16Z" fill="#a6cde4" stroke="#a6cde4" stroke-width="1.51"/><path d="M97,-20L91,44L129,16Z" fill="#91c1df" stroke="#91c1df" stroke-width="1.51"/><path d="M68,-53L99,-24L121,-45Z" fill="#cde1f0" stroke="#cde1f0" stroke-width="1.51"/><path d="M56,-1L91,44L97,-20Z" fill="#a0c9e4" stroke="#a0c9e4" stroke-width="1.51"/><path d="M91,44L100,63L119,52Z" fill="#739dcd" stroke="#739dcd" stroke-width="1.51"/><path d="M56,-1L62,44L91,44Z" fill="#8db9dc" stroke="#8db9dc" stroke-width="1.51"/><path d="M68,-53L97,-20L99,-24Z" fill="#c9def0" stroke="#c9def0" stroke-width="1.51"/><path d="M91,44L62,44L100,63Z" fill="#7aa2d1" stroke="#7aa2d1" stroke-width="1.51"/><path d="M62,44L50,76L100,63Z" fill="#7a99ca" stroke="#7a99ca" stroke-width="1.51"/><path d="M68,-53L56,-1L97,-20Z" fill="#c8dcef" stroke="#c8dcef" stroke-width="1.51"/><path d="M56,-1L40,15L62,44Z" fill="#9ac3e2" stroke="#9ac3e2" stroke-width="1.51"/><path d="M2,-54L27,-31L68,-53Z" fill="#dfebf7" stroke="#dfebf7" stroke-width="1.51"/><path d="M27,-31L56,-1L68,-53Z" fill="#cfe1f2" stroke="#cfe1f2" stroke-width="1.51"/><path d="M20,58L50,76L62,44Z" fill="#809ecd" stroke="#809ecd" stroke-width="1.51"/><path d="M40,15L20,58L62,44Z" fill="#8cb3d9" stroke="#8cb3d9" stroke-width="1.51"/><path d="M27,-31L40,15L56,-1Z" fill="#bbd7eb" stroke="#bbd7eb" stroke-width="1.51"/><path d="M27,-31L19,14L40,15Z" fill="#b8d6ea" stroke="#b8d6ea" stroke-width="1.51"/><path d="M19,14L20,58L40,15Z" fill="#96bedf" stroke="#96bedf" stroke-width="1.51"/><path d="M20,58L-14,75L50,76Z" fill="#8096c5" stroke="#8096c5" stroke-width="1.51"/><path d="M19,14L0,46L20,58Z" fill="#91b6db" stroke="#91b6db" stroke-width="1.51"/><path d="M-12,-10L19,14L27,-31Z" fill="#c4dcee" stroke="#c4dcee" stroke-width="1.51"/><path d="M2,-54L-12,-10L27,-31Z" fill="#dae8f5" stroke="#dae8f5" stroke-width="1.51"/><path d="M0,46L-14,75L20,58Z" fill="#88a2cf" stroke="#88a2cf" stroke-width="1.51"/><path d="M-12,-10L0,46L19,14Z" fill="#a6cbe6" stroke="#a6cbe6" stroke-width="1.51"/><path d="M-12,-10L-30,41L0,46Z" fill="#a1c5e3" stroke="#a1c5e3" stroke-width="1.51"/><path d="M-30,41L-14,75L0,46Z" fill="#8eaad4" stroke="#8eaad4" stroke-width="1.51"/><path d="M-44,-24L-12,-10L2,-54Z" fill="#ddeaf6" stroke="#ddeaf6" stroke-width="1.51"/><path d="M-30,41L-58,70L-14,75Z" fill="#8ea4d0" stroke="#8ea4d0" stroke-width="1.51"/><path d="M-61,1L-30,41L-12,-10Z" fill="#b5d4eb" stroke="#b5d4eb" stroke-width="1.51"/><path d="M-44,-24L-61,1L-12,-10Z" fill="#d0e3f2" stroke="#d0e3f2" stroke-width="1.51"/><path d="M-61,1L-58,70L-30,41Z" fill="#9fbfdf" stroke="#9fbfdf" stroke-width="1.51"/></svg>
